

-- d1 $ stut' 2 3 (|/| speed 2.6) $ sound "bd [hardcore:2 hardcore:2/3] bd/2 bd/5 hardcore:2/3"
-- d2 $ stut' 3 2 (|/| speed 2.1) $ sound "bd [hardcore:2 hardcore:2/3] bd/2 bd/5 hardcore:2/3"


-- Jon Baker's tidal experiments


-- 1/21/2020
--
d1 $s "808:4*16" # up "4 7 3 5 3 3 3 3 3 1" # gain "0.5 0.2 0.5 0.4"
d1 $ silence

d2 $s "armora:2*4" # up "-4 -6 -2 0" # speed 0.5 # vowel "[a e ~ i o u]/8"

d3 $s "armora:3*3" # up "-4 -6 -2 0" # vowel "[a e ~ i o u]/8" # speed 0.25


setcps 0.16
hush

d4 $s "koy" # vowel "[a e ~ i o u]/8" # speed 0.8 # gain 1.5
d4 $silence

d5 $s "koy" # vowel "[a e ~ i o u]/8" # speed 0.8 # gain 1.3
--


-- 1/22/2020
--
d1 $ s "feel:6*6" # speed 0.4 # up "4 7 3 5 3 3" # gain "1.2 1.2 1.3 1.2 1.4"
d2 $ s "feel:8*4" # speed 0.4 # up "4 7 3 5" # gain "1.2 1.2 1.3 1.2"
d3 $ s "feel:4*3" # speed 0.2 # gain 0.8
--


--
d1 $ stut' 3 0.03 (|/| speed 2.1) $ n "<c a f e>" # s "supermandolin:2" # speed 0.4
d2 $ n "c a f e"  # s "supermandolin" # speed 0.4
d3 $ n "c a f e"  # s "feel:6" # speed 0.2
--


-- working from this:
-- https://tidalcycles.org/index.php/Building_up_patterns

d1 $ off 0.25 (# vowel "<a o i>") $ juxBy 0.4 rev $ every 2 (rot "<1 3 2>") $ n "0 <0 4> [2 0] [2 3]" # sound "feel" # speed "1.75 2"
--





--
d1 $ s "koy" # gain 1.8
d2 $ s "bd bd bd bd" # gain 1.1

d1 $s "pebbles" # up "4 7 3 5 3 3 3 3 3 1" # gain "1.0 1.2 1.5 1.4"
d2 $s "print:5*8" # up "4 7 3 5 2 3 4 3 3 1" # gain "1.1 1.2 1.2 1.3"
hush
--










--"sampling without replacement".
d1 $ s $ shuffle 16 "speech:5 speech:2 speech:3 speech:1 speech:4 speech:6 ~ ~ ~ ~ ~ ~ ~ ~ ~ ~"
d2 $ s $ shuffle 16 "speech:5 speech:8 speech:3 speech:7 speech:4 speech:6 ~ ~ ~ ~ ~ ~ ~ ~ ~ ~"
--"sampling with replacement".
d1 $ s $ scramble 16 "speech:5 speech:2 speech:3 speech:1 speech:4 speech:6 ~ ~ ~ ~ ~ ~ ~ ~ ~ ~"
d2 $ s $ scramble 16 "speech:5 speech:8 speech:3 speech:7 speech:4 speech:6 ~ ~ ~ ~ ~ ~ ~ ~ ~ ~"

d3 $ s "wind:1 wind:2 wind:3 wind:4 wind:5 wind:6 wind:7" # speed 0.4  # room 0.4 # size 1.5

hush


hush
  d1 $ s "hmm"
  d1 $ s "808"  --try 3, 5
  d1 $ s "metal:1"
  d1 $ s "moog:1"
  d1 $ s "sitar:1"
  d1 $ s "ab:11"   -- try 2, 3, 4, 5, 9
  d1 $ s "crow"
  d1 $ s "tacscan:1" -- 5
  d1 $ s "ade:10"  --1 is interesting, 2, 3, 4?, 7, 8, 9
  d1 $ s "arp:4"    -- 2
  d1 $ s "jazz:2"
  d1 $ s "kurt:1"
  d1 $ s "armora:3"   -- 6
  d1 $ s "baa2:1"
  d1 $ s "blue:1"
  d1 $ s "dork2:1"
  d1 $ s "erk:1"
  d1 $ s "jungle:4"
  d1 $ s "dorkbot:1"
  d1 $ s "fire:1"
  d1 $ s "glasstap:1"
  hush

d1 $ s "ades2:3"
d1 $ s "ades3:1"
d1 $ s "ades4:1"
d1 $ s "alex:1"
d1 $ s "amencutup:2"
d1 $ s "baa:1"
d1 $ s "bass:1"
d1 $ s "bass0:1"
d1 $ s "bass1:1"
d1 $ s "bass2:1"
d1 $ s "bass3:1"
d1 $ s "bassdm:1"
d1 $ s "bassfoo:1"
d1 $ s "battles:1"
d1 $ s "bend:1"
d1 $ s "bev:1"
d1 $ s "bin:1"
d1 $ s "bd:1"
d1 $ s "birds3:1"
d1 $ s "blip:1"
d1 $ s "bottle:1"
d1 $ s "breaks125:1"
d1 $ s "breaks152:1"
d1 $ s "breaks152loud:1"
d1 $ s "breaks152louder:1"
d1 $ s "breaks157:1"
d1 $ s "breaks165:1"
d1 $ s "breath:1"
d1 $ s "bubble:1"
d1 $ s "can:1"
d1 $ s "casio:1"
d1 $ s "cc:1"
d1 $ s "chin:1"
d1 $ s "chink:1"
d1 $ s "circus:1"
d1 $ s "clak:1"
d1 $ s "click:1"
d1 $ s "co:1"
d1 $ s "cosmicg:1"
d1 $ s "cp:1"
d1 $ s "cr:1"
d1 $ s "d:1"
d1 $ s "db:1"
d1 $ s "diphone:1"
d1 $ s "diphone2:1"
d1 $ s "dist:1"
d1 $ s "dr:1"
d1 $ s "dr2:1"
d1 $ s "dr55:1"
d1 $ s "dr_few:1"
d1 $ s "drum:1"
d1 $ s "drumtraks:1"
d1 $ s "e:1"
d1 $ s "electro1:1"
d1 $ s "f:1"
d1 $ s "fest:1"
d1 $ s "flick:1"
d1 $ s "foo:1"
d1 $ s "fuckable:1"
d1 $ s "future:1"
d1 $ s "gabba:1"
d1 $ s "gabbaloud:1"
d1 $ s "gabbalouder:1"
d1 $ s "glitch:1"
d1 $ s "glitch2:1"
d1 $ s "gretsch:1"
d1 $ s "h:1"
d1 $ s "hand:1"
d1 $ s "hardcore:1"
d1 $ s "hc:1"
d1 $ s "hh:1"
d1 $ s "hh27:1"
d1 $ s "hit:1"
d1 $ s "ho:1"
d1 $ s "house:1"
d1 $ s "ht:1"
d1 $ s "incoming:1"
d1 $ s "industrial:1"
d1 $ s "insect:1"
d1 $ s "invaders:1"
d1 $ s "jvbass:1"
d1 $ s "koy:1"
d1 $ s "latibro:1"
d1 $ s "led:1"
d1 $ s "lighter:1"
d1 $ s "lt:1"
d1 $ s "made:1"
d1 $ s "made2:1"
d1 $ s "mash:1"
d1 $ s "mash2:1"
d1 $ s "miniyeah:1"
d1 $ s "moan:1"
d1 $ s "monsterb:1"
d1 $ s "mouth:1"
d1 $ s "mp3:1"
d1 $ s "msg:1"
d1 $ s "mt:1"
d1 $ s "mute:1"
d1 $ s "newnotes:1"
d1 $ s "noise:1"
d1 $ s "noise2:1"
d1 $ s "notes:1"
d1 $ s "oc:1"
d1 $ s "odx:1"
d1 $ s "off:1"
d1 $ s "perc:1"
d1 $ s "pluck:1"
d1 $ s "print:1"
d1 $ s "printshort:1"
d1 $ s "proc:1"
d1 $ s "procshort:1"
d1 $ s "psr:1"
d1 $ s "rave:1"
d1 $ s "ravemono:1"
d1 $ s "rm:1"
d1 $ s "sequential:1"
d1 $ s "sf:1"
d1 $ s "sid:1"
d1 $ s "sine:1"
d1 $ s "sn:1"
d1 $ s "speechless:1"
d1 $ s "speedupdown:1"
d1 $ s "stab:1"
d1 $ s "stomp:1"
d1 $ s "subroc3d:1"
d1 $ s "sugar:1"
d1 $ s "sundance:1"
d1 $ s "tabla:1"
d1 $ s "tabla2:1"

d1 $ s "techno:1"

d1 $ s "trump:1"
d1 $ s "uxay:1"
d1 $ s "v:1"
d1 $ s "voodoo:1"
d1 $ s "wobble:1"
d1 $ s "world:1"
d1 $ s "xmas:1"
d1 $ s "yeah:2"
















-- 1/24/2020

d1 $ s "808"  --try 3, 5
d1 $ s "glasstap"
d1 $ s "moog:1"
d1 $ s "metal:1"
d1 $ s "ab:2"   -- try 2, 3, 4, 5, 9
d1 $ s "crow"
d1 $ s "ade:10"  --1 is interesting, 2, 3, 4?, 7, 8, 9
d1 $ s "arp:4"    -- 2
d1 $ s "jazz:2"
d1 $ s "kurt:1"
d1 $ s "armora:3"   -- 6
d1 $ s "blue:1"
d1 $ s "erk:1"
d1 $ s "jungle:4"
d1 $ s "wind"
d1 $ s "sitar:1"
d1 $ s "tacscan:5" -- 5
d1 $ s "tablex:1"
d1 $ s "tech:1"
d1 $ s "tink:1"
d1 $ s "tok:1"
d1 $ s "sax:1"
d1 $ s "seawolf:1"
d1 $ s "sheffield:1"
d1 $ s "short:1"
d1 $ s "space:1"


d1 $ s "hmm"
d1 $ s "baa2:1"
d1 $ s "dorkbot:1"
d1 $ s "fire:1"
d1 $ s "dork2:1"


-- wind
d1 $ s "wind" # n (choose [0,2,4,5]) # speed 0.375 # room 0.5 # size 0.95 # gain 0.8
d2 $ s "wind" # n (irand 8) # speed 0.4 # room 0.4 # size 0.9 # gain 0.9

-- noises
d3 $ randcat[
 s "moog ~ ~ " # n (irand 8) # speed 0.75  # gain 0.7 # room 0.5 # size 0.8,
 s "moog ~ ~ " # n (irand 8) # speed 0.625 # gain 0.7 # room 0.5 # size 0.8,
 s "moog ~ ~ " # n (irand 8) # speed 0.5    # gain 0.7 # room 0.5 # size 0.8,
 s "moog ~ ~ " # n (irand 8) # speed 0.375   # gain 1.3# room 0.5 # size 0.8,
 s "moog ~ ~ " # n (irand 8) # speed 0.25    # gain 1.7 # room 0.5 # size 0.8,
 s "moog ~ ~ " # n (irand 8) # speed 0.125   # gain 1.4 # room 0.5 # size 0.8
]

-- drums
d4 $ stut' 0 0.032 (|/| speed 1.0) $ s "jazz" # n (choose [2,36]) # up "4 7 3 5 2 3 4 3 3 1"

hush

-- glass tapping
d5 $ s "glasstap:3 ~ ~ fire:1 " # gain 0.2 # room 0.4 # size 0.8
d5 $ silence


-- d1 $ cat
-- d1 $ randcat
