

-- d1 $ stut' 2 3 (|/| speed 2.6) $ sound "bd [hardcore:2 hardcore:2/3] bd/2 bd/5 hardcore:2/3"
-- d2 $ stut' 3 2 (|/| speed 2.1) $ sound "bd [hardcore:2 hardcore:2/3] bd/2 bd/5 hardcore:2/3"


-- Jon Baker's tidal experiments


-- 1/21/2020
--
d1 $s "808:4*16" # up "4 7 3 5 3 3 3 3 3 1" # gain "0.5 0.2 0.5 0.4"
d1 $ silence

d2 $s "armora:2*4" # up "-4 -6 -2 0" # speed 0.5 # vowel "[a e ~ i o u]/8"

d3 $s "armora:3*3" # up "-4 -6 -2 0" # vowel "[a e ~ i o u]/8" # speed 0.25

d4 $s "koy" # vowel "[a e ~ i o u]/8" # speed 0.8 # gain 1.5
d4 $silence

d5 $s "koy" # vowel "[a e ~ i o u]/8" # speed 0.8 # gain 1.3
--


-- 1/22/2020
--
d1 $ s "feel:6*6" # speed 0.4 # up "4 7 3 5 3 3" # gain "1.2 1.2 1.3 1.2 1.4"
d2 $ s "feel:8*4" # speed 0.4 # up "4 7 3 5" # gain "1.2 1.2 1.3 1.2"
d3 $ s "feel:4*3" # speed 0.2 # gain 0.8
--


--
d1 $ stut' 3 0.03 (|/| speed 2.1) $ n "<c a f e>" # s "supermandolin:2" # speed 0.4
d2 $ n "c a f e"  # s "supermandolin" # speed 0.4
d3 $ n "c a f e"  # s "feel:6" # speed 0.2
--


-- working from this:
-- https://tidalcycles.org/index.php/Building_up_patterns

d1 $ off 0.25 (# vowel "<a o i>") $ juxBy 0.4 rev $ every 2 (rot "<1 3 2>") $ n "0 <0 4> [2 0] [2 3]" # sound "feel" # speed "1.75 2"
